images/icons/star.svg

<svg width="18" height="17" viewBox="0 0 18 17" fill="none" xmlns="http://www.w3.org/2000/svg"><g clip-path="url(#a)"><path d="m9 0 2.1 6.5h6.9l-5.6 4 2.2 6.5-5.6-4-5.6 4 2.2-6.5-5.6-4h6.9l2.1-6.5Z" fill="#83B3D3"/></g><defs><clipPath id="a"><path fill="#fff" d="M0 0h18v17h-18z"/></clipPath></defs></svg>

<svg width="18" height="17" viewBox="0 0 18 17" fill="none" xmlns="http://www.w3.org/2000/svg">
<g clip-path="url(#clip0_140107_218)">
<path d="M9 0L11.1 6.5H18L12.4 10.5L14.6 17L9 13L3.4 17L5.6 10.5L0 6.5H6.9L9 0Z" fill="#83B3D3"/>
</g>
<defs>
<clipPath id="clip0_140107_218">
<rect width="18" height="17" fill="white"/>
</clipPath>
</defs>
</svg>
